src/icons/svg/logout.svg

<?xml version="1.0" standalone="no"?><!DOCTYPE svg PUBLIC "-//W3C//DTD SVG 1.1//EN" "http://www.w3.org/Graphics/SVG/1.1/DTD/svg11.dtd"><svg t="1589688334472" class="icon" viewBox="0 0 1025 1024" version="1.1" xmlns="http://www.w3.org/2000/svg" p-id="1159" xmlns:xlink="http://www.w3.org/1999/xlink" width="128.125" height="128"><defs><style type="text/css"></style></defs><path d="M1001.65696 463.424l-332.224-332.416C648.76096 110.4 624.05696 104.256 598.52096 113.792c-26.176 9.856-41.152 33.28-41.216 64.384L557.30496 328.32 492.28096 328.32 305.65696 328.384C266.48896 328.512 239.16096 355.712 239.03296 394.624c-0.128 78.4-0.128 156.736 0 235.072 0.128 37.696 27.776 65.28 65.792 65.664l252.48 0.064L557.24096 724.48c-0.128 40.768-0.256 81.408 0.576 122.112 0.256 15.936 6.528 33.28 16.256 45.184 11.904 14.656 28.224 22.72 45.952 22.72l0 0c17.536 0 35.2-8 49.728-22.464 110.848-110.72 221.568-221.504 332.288-332.352C1031.60896 530.176 1031.48096 493.248 1001.65696 463.424z" p-id="1160"></path><path d="M387.70496 805.696 387.64096 805.696l-72.576 0.128-103.872-0.064c-52.48 0-82.624-30.144-82.624-82.688L128.56896 300.48c0-52.416 30.144-82.496 82.752-82.496l68.8-0.064 75.584 0.064 42.048-0.064c30.08 0 46.528-15.104 48.896-44.8 0.896-11.072 0.64-22.336 0.256-34.88C446.13696 106.944 428.60096 89.664 397.68896 89.6L321.33696 89.6C280.44096 89.6 239.54496 89.6 198.71296 89.856 186.16896 89.92 173.30496 91.328 160.44096 94.08 68.21696 113.728 0.88896 196.416 0.37696 290.688 0.12096 341.504 0.18496 392.384 0.24896 443.136l0.064 67.648L0.18496 581.76C0.12096 632.768-0.00704 683.712 0.44096 734.784c0.896 107.776 88.768 197.056 195.904 199.04 26.368 0.512 52.8 0.64 79.168 0.64l125.376-0.256c24.768 0 42.112-15.04 45.184-39.232 1.088-8.832 1.216-17.856 1.28-26.88l0-4.48c0.128-13.312 0.256-31.552-12.544-44.48C422.45696 806.784 404.66496 805.696 387.70496 805.696z" p-id="1161"></path></svg>

<svg class="icon" viewBox="0 0 1025 1024" xmlns="http://www.w3.org/2000/svg" width="128.125" height="128"><defs><style/></defs><path d="M1001.657 463.424L669.433 131.008c-20.672-20.608-45.376-26.752-70.912-17.216-26.176 9.856-41.152 33.28-41.216 64.384V328.32h-65.024l-186.624.064c-39.168.128-66.496 27.328-66.624 66.24-.128 78.4-.128 156.736 0 235.072.128 37.696 27.776 65.28 65.792 65.664l252.48.064-.064 29.056c-.128 40.768-.256 81.408.576 122.112.256 15.936 6.528 33.28 16.256 45.184 11.904 14.656 28.224 22.72 45.952 22.72 17.536 0 35.2-8 49.728-22.464 110.848-110.72 221.568-221.504 332.288-332.352 29.568-29.504 29.44-66.432-.384-96.256z"/><path d="M387.705 805.696h-.064l-72.576.128-103.872-.064c-52.48 0-82.624-30.144-82.624-82.688V300.48c0-52.416 30.144-82.496 82.752-82.496l68.8-.064 75.584.064 42.048-.064c30.08 0 46.528-15.104 48.896-44.8.896-11.072.64-22.336.256-34.88-.768-31.296-18.304-48.576-49.216-48.64h-76.352c-40.896 0-81.792 0-122.624.256-12.544.064-25.408 1.472-38.272 4.224C68.217 113.728.889 196.416.377 290.688.121 341.504.185 392.384.249 443.136l.064 67.648-.128 70.976c-.064 51.008-.192 101.952.256 153.024.896 107.776 88.768 197.056 195.904 199.04 26.368.512 52.8.64 79.168.64l125.376-.256c24.768 0 42.112-15.04 45.184-39.232 1.088-8.832 1.216-17.856 1.28-26.88v-4.48c.128-13.312.256-31.552-12.544-44.48-12.352-12.352-30.144-13.44-47.104-13.44z"/></svg>
